WebSitesСreation/Dismantling/dist/img/icons/map-icon.svg

<svg width="32" height="32" viewBox="0 0 32 32" fill="none" xmlns="http://www.w3.org/2000/svg">
<path d="M9.11839 19.4877L8.7621 22.7867L8.66528 23.706L7.80756 31.672L0 29.6926L1.05131 25.5447H1.05568L1.31958 24.489H1.32396L2.94708 18.089L3.53652 18.2122L9.11839 19.4877Z" fill="#D5D6DB"/>
<path d="M15.9997 18.0883V29.6898L7.8064 31.6701L9.11737 19.491L15.9997 18.0883Z" fill="#E1E6E9"/>
<path d="M15.9998 18.0883V29.6898L24.1931 31.6701L22.8821 19.491L15.9998 18.0883Z" fill="#D5D6DB"/>
<path d="M31.9999 29.6926L24.1924 31.672L23.3346 23.706L23.2378 22.7867L22.8816 19.4877L28.4282 18.221L29.0528 18.089L30.6803 24.489L30.9487 25.5447L31.9999 29.6926Z" fill="#E1E6E9"/>
<path d="M30.9487 25.5447L24.7027 23.2399L23.3346 23.7061L15.9978 26.2046L8.66526 23.7061L7.2973 23.2399L1.05566 25.5447L1.31957 24.4891H1.32394L7.2973 22.2854L8.76209 22.7868L15.9978 25.2544L23.2379 22.7868L24.7027 22.2854L30.6804 24.4891L30.9487 25.5447Z" fill="#37444F"/>
<path d="M24.1307 8.13105C24.1307 12.6217 15.9997 25.7296 15.9997 25.7296C15.9997 25.7296 7.86865 12.6216 7.86865 8.13105C7.86865 3.64046 11.509 0 15.9997 0C20.4904 0 24.1307 3.64039 24.1307 8.13105Z" fill="#546D79"/>
<path d="M15.9996 13.2687C18.8414 13.2687 21.1451 10.965 21.1451 8.12314C21.1451 5.28132 18.8414 2.97757 15.9996 2.97757C13.1578 2.97757 10.854 5.28132 10.854 8.12314C10.854 10.965 13.1578 13.2687 15.9996 13.2687Z" fill="#E1E6E9"/>
</svg>

<svg xmlns="http://www.w3.org/2000/svg" width="32" height="32" fill="none"  xmlns:v="https://vecta.io/nano"><path d="M9.118 19.488l-1.31 12.184L0 29.693l1.05-4.148h.004l.264-1.056h.004l1.623-6.4.59.123 5.582 1.276z" fill="#d5d6db"/><path d="M16 18.088V29.7l-8.193 1.98 1.31-12.18L16 18.088z" fill="#e1e6e9"/><path d="M16 18.088V29.7l8.193 1.98-1.31-12.18L16 18.088z" fill="#d5d6db"/><path d="M32 29.693l-7.808 1.98-1.31-12.184 5.547-1.267.625-.132L32 29.693z" fill="#e1e6e9"/><path d="M30.95 25.545l-6.246-2.305-8.705 2.965-8.7-2.965-6.242 2.305.264-1.056h.004l5.973-2.204 1.465.5 7.236 2.468 7.24-2.468 1.465-.5 5.978 2.204.268 1.056z" fill="#37444f"/><path d="M24.13 8.13c0 4.49-8.13 17.6-8.13 17.6S7.87 12.622 7.87 8.13 11.51 0 16 0s8.13 3.64 8.13 8.13z" fill="#546d79"/><path d="M16 13.27c2.842 0 5.146-2.304 5.146-5.146S18.84 2.978 16 2.978s-5.146 2.304-5.146 5.146S13.158 13.27 16 13.27z" fill="#e1e6e9"/></svg>
